X: 045
T: Mr Oswald's Reel
C: attr. John French (1753-1803)
R: reel
B: "John French Collection", John French ed. p.4 #5
S: http://www.heallan.com/french.asp
Z: 2012 John Chambers <jc:trillian.mit.edu>
M: C
L: 1/8
K: Gm
D | (GABc) (Td>cd)(f | cd)Ac FGAF | (GABc) (Td>cd)f    | AFcA dG-G :|
d | gdBd (g/a/b)(ag) | fdcB  Acfa |  gdBd  (g/a/b)(ag) | fcAc dG-G ||
d | gdBd  gbag       | fcAc  fagf |  gbdg   fdcB       | AFcA dG-G |]

%%sep 2 1 500
%%sep 1 1 500

